X:7
T:Christmas Tree
C:Chris Perry
S:The Fiddle Player's Tunebook 1
M:6/8
L:1/8
K:C
|:C |\
"Dm"D2 A AGA |\
"Dm"D2 A AGA |\
"C"GED CDE |\
"Am"GED CDE |\
"Dm"D2 A AGA |\
"Dm"D2 A AGA |\
"C"GED "Am"CDE |\
"Dm"EDC D2 :: _B |\
"Dm"A2 d def |\
"Dm"A2 d def |\
"C"ece gag |\
"Am"ece gfe |\
"Dm"A2 d def |\
"Dm"A2 d def |\
"C"edc edc |\
